build/images/line.svg

<svg width="624" height="45" viewBox="0 0 624 45" fill="none" xmlns="http://www.w3.org/2000/svg">
<path d="M0.6524 29.9494C6.33431 20.7305 20.5757 16.5948 32.8786 18.6316C45.1815 20.6685 56.198 26.4071 67.8399 31.5346C78.8653 36.6533 91.7402 41.7986 103.462 41.347C115.801 40.9042 125.753 34.8468 136.323 28.7982C143.783 24.5652 151.868 19.721 161.151 17.3742C180.959 12.0784 199.972 19.172 218.377 25.6368C223.899 27.5762 230.037 29.5245 235.567 30.844C260.736 38.646 288.371 46.4835 314.924 43.7648C336.536 41.5951 357.005 33.2086 376.232 25.4243C379.948 24.2377 384.29 22.4399 388.007 21.2532C397.915 18.2954 407.806 16.5774 417.678 16.0992C431.259 15.0542 446.037 16.5066 460.153 21.0496C477.96 26.2657 493.265 33.926 510.5 36.0338C530.192 38.7968 550.07 28.5417 567.483 18.2513C584.905 7.34086 606.017 -2.89649 623.823 2.31962" stroke="#A28C62" stroke-miterlimit="10"/>
</svg>

<svg width="624" height="45" fill="none" xmlns="http://www.w3.org/2000/svg"><path d="M.652 29.95c5.682-9.22 19.924-13.355 32.227-11.318 12.303 2.037 23.319 7.775 34.96 12.903 11.026 5.118 23.901 10.264 35.623 9.812 12.339-.443 22.291-6.5 32.861-12.549 7.46-4.233 15.545-9.077 24.828-11.424 19.808-5.296 38.821 1.798 57.226 8.263 5.522 1.94 11.66 3.887 17.19 5.207 25.169 7.802 52.804 15.64 79.357 12.92 21.612-2.169 42.081-10.555 61.308-18.34 3.716-1.186 8.058-2.984 11.775-4.17 9.908-2.959 19.799-4.677 29.671-5.155 13.581-1.045 28.359.408 42.475 4.95 17.807 5.217 33.112 12.877 50.347 14.985 19.692 2.763 39.57-7.492 56.983-17.783 17.422-10.91 38.534-21.147 56.34-15.931" stroke="#A28C62" stroke-miterlimit="10"/></svg>
